X:1
T:Title
%%score { 1 | ( 2 3 ) }
L:1/8
M:4/4
K:Eb
V:1 treble nm="Grand Piano"
V:2 bass 
V:3 bass 
V:1
 z4 z2 z[Q:1/4=90] G | G2 E>F GGGG |[M:7/8] [CEA][CEA][CEA] [=B,FA] [_B,EG]3 |[M:1/8] [B,EG] | %4
[M:4/4] [DG]2 [DF]>[DG] [DF]E B>B |[M:7/8] =Aed c [DB]3 |[M:1/8] B |[M:4/4] B3 c BAG[GB] | %8
 [Ac]3 [Ad] [Ac][GB][EG][FA] | [GB]3 [Ac] [GB][FA][EG][FA] | [DF]edc BAGA | B3 c BAG[GB] | %12
 c3 d c[GB][EG][GB] | [Ge]2 [Bd][Ac] [GB] [Ge]2 G | %14
[M:7/8] B=A[D_A] F E3[Q:1/4=87][Q:1/4=84][Q:1/4=82][Q:1/4=79][Q:1/4=76][Q:1/4=73][Q:1/4=70] |] %15
V:2
 z4 z2 z [E,B,E] | [E,B,E]2 [E,G,]>[E,A,E] [E,B,E][E,B,E][E,B,E][E,B,E] |[M:7/8] A,,B,,C, D, E,3 | %3
[M:1/8] E, |[M:4/4] [B,,B,]2 [B,,B,]>[B,,B,] [B,,A,][E,G,] [E,G,E]>[E,G,E] | %5
[M:7/8] [F,CE][F,=A,G][F,A,F] [F,A,E] [B,,B,]3 |[M:1/8] [E,G,E] | %7
[M:4/4] [E,G,E]3 [E,A,E] [E,G,E][E,CE][E,B,E][E,E] | [A,E]3 [A,E] [E,E][E,B,][E,B,][E,B,] | %9
 [E,E]3 [E,E] [E,E][E,E][E,B,][E,B,] | z[K:treble] cBA GF[K:bass][E,B,E][E,B,F] | %11
 [E,G,E]3 [E,A,E] [E,G,E][E,CE][E,B,E][E,E] | [A,EA]3 [A,EA] [A,EA][K:bass][E,E][E,B,][E,B,] | %13
 [E,B,]2 [E,C][E,D] [E,E] [E,B,]2 [E,B,E] |[M:7/8] [F,B,D][F,CE][B,,B,] [B,,A,B,] [E,G,B,]3 |] %15
V:3
 x8 | x8 |[M:7/8] x7 |[M:1/8] x |[M:4/4] x8 |[M:7/8] x7 |[M:1/8] x |[M:4/4] x8 | x8 | x8 | %10
 [B,,B,]6[K:treble][K:bass] z2 | x8 | x5[K:bass] x3 | x8 |[M:7/8] x7 |] %15

